X:1
T: The Coldside Jig
C:
R:Jig
Q:180
K:G
M:6/8
L:1/16
|:e6 B4A2|G2F2G2 E2G2B2|d6 A4G2|F2d2B2 A2F2D2|
B6 g6|f2e2^d2 e4c2|B2c2B2 A2G2F2|1G2E2E2 E6:|2G2E2E2 E4F2|
|:G2A2G2 E2F2G2|A2B2G2 B2A2G2|F2G2F2 D2E2F2|A2G2F2 A2G2F2|
G2B2d2 F2A2d2|E2G2B2 e4c2|B2c2B2 A2G2F2|1G2E2E2 E4F2:|2G2E2E2 E6||
